X:2
T:Broken Pledge, The
M:C|
L:1/8
R:Reel
K:DDor
dcAG AEAB|cAGF ECCE|D2 (3E^FG Addc|(3ABc Gc Adfe|
dcAG (3E^FG AB|cBcd cAGE|D2 (3E^FG AddB|cAGE {G}ED D2:|
dcAG A2 de|fefd ecAB|cAGE GAcd|ec ~c2 eage|
dcAG FAde|fefd ecAG|F2 ED (3E^FG AB|cAGE {G}ED D2:|
